X: 30189
T: Old French
R: waltz
M: 3/4
K: Dmajor
A|:d2 d2 a2|f2 f2 e2|e2 dd ef|B2 A2 d2|
d2 a2 f2|f2 ed e2|e6|e4 A2|
d2 d2 a2|f2 f2 e2|e2 dd ef|B2 A2 a2|
a2 fa e2|A4 AB|d4 ed|d6||
fg|:a4 de|f4 af|e6|dd ef B2|A2 d2 de|
fg a2 af|a2 e4|e6|AB d4|
a2 f4|e4 dd ef|B2 A2 a2|a2 fa e2|
A2 AA B2|d4 ed|d6 d6:|

